static/img/menus/ico-air-active.svg

<svg width="16" height="16" viewBox="0 0 16 16" fill="none" xmlns="http://www.w3.org/2000/svg">
<g clip-path="url(#clip0_106_11)">
<circle cx="8" cy="8" r="8" fill="#D0D0D0"/>
<path d="M10.2672 3.99121C10.3683 3.83785 10.5745 3.79484 10.7281 3.89551C11.5752 4.45247 12.2334 5.25513 12.6188 6.19434L12.693 6.38379L12.7584 6.57617C13.0675 7.54334 13.0806 8.58416 12.7936 9.56152C12.4873 10.6042 11.8555 11.5196 10.9918 12.1709C10.128 12.8223 9.07834 13.1748 7.99963 13.1748C6.921 13.1748 5.87119 12.8223 5.00744 12.1709C4.14389 11.5196 3.5119 10.6041 3.20568 9.56152C2.89955 8.519 2.93548 7.40438 3.30724 6.38379C3.67914 5.36301 4.36763 4.48956 5.27111 3.89551C5.42487 3.7945 5.63187 3.83756 5.73303 3.99121C5.83404 4.145 5.79104 4.35199 5.63732 4.45312C4.85457 4.96788 4.25631 5.72549 3.93322 6.6123C3.61031 7.49908 3.57925 8.46806 3.84533 9.37402C4.11149 10.2801 4.66114 11.0741 5.40978 11.6387C6.15828 12.203 7.06652 12.5078 7.99963 12.5078C8.93292 12.5078 9.84188 12.2032 10.5904 11.6387C11.339 11.0741 11.8878 10.28 12.1539 9.37402C12.42 8.46803 12.389 7.49914 12.066 6.6123L12.0026 6.44629C11.6678 5.63083 11.0965 4.93559 10.3629 4.45312C10.2091 4.35201 10.1662 4.14502 10.2672 3.99121ZM7.99963 3.84082C8.18373 3.84082 8.33361 3.99071 8.33361 4.1748V8.1748C8.33347 8.35878 8.18364 8.50781 7.99963 8.50781C7.81573 8.50768 7.66676 8.3587 7.66662 8.1748V4.1748C7.66662 3.99079 7.81564 3.84095 7.99963 3.84082Z" fill="black"/>
</g>
<defs>
<clipPath id="clip0_106_11">
<rect width="16" height="16" fill="white"/>
</clipPath>
</defs>
</svg>

<svg xmlns="http://www.w3.org/2000/svg" width="16" height="16" fill="none" viewBox="0 0 16 16"><g clip-path="url(#a)"><circle cx="8" cy="8" r="8" fill="#d0d0d0"/><path fill="#000" d="M10.267 3.991a.333.333 0 0 1 .461-.095 5.04 5.04 0 0 1 1.89 2.298l.075.19.065.192c.31.967.323 2.008.036 2.986a5.05 5.05 0 0 1-1.802 2.609A4.97 4.97 0 0 1 8 13.175a4.97 4.97 0 0 1-2.993-1.004 5.05 5.05 0 0 1-1.801-2.61 5.1 5.1 0 0 1 .101-3.177 5.04 5.04 0 0 1 1.964-2.488.334.334 0 0 1 .366.557 4.38 4.38 0 0 0-1.704 2.16 4.43 4.43 0 0 0-.088 2.761c.266.906.816 1.7 1.565 2.265.748.564 1.657.869 2.59.869s1.842-.305 2.59-.87a4.4 4.4 0 0 0 1.564-2.264 4.43 4.43 0 0 0-.088-2.762l-.063-.166a4.37 4.37 0 0 0-1.64-1.993.334.334 0 0 1-.096-.462M8 3.841c.184 0 .334.15.334.334v4a.334.334 0 0 1-.667 0v-4c0-.184.149-.334.333-.334"/></g><defs><clipPath id="a"><path fill="#fff" d="M0 0h16v16H0z"/></clipPath></defs></svg>
